X:244
T: Jacky Tarr
R: reel
M: C|
L: 1/8
K: D
|:\
D/D/D (AD) FDAF | FDAF EccE | D/D/D (AD) 50mg | FDAF EccE | (DF).E.G (FD).G.B |
(Ad).d.d (df).e.c | (ce).a.g (df).e.c | edef dgB | AFDd ccDA |]

